bernoullicharts/1_1_x_alt_series__bits.svg

<?xml version="1.0" encoding="utf-8" standalone="no"?>
<!DOCTYPE svg PUBLIC "-//W3C//DTD SVG 1.1//EN"
  "http://www.w3.org/Graphics/SVG/1.1/DTD/svg11.dtd">
<!-- Created with matplotlib (https://matplotlib.org/) -->
<svg height="345.6pt" version="1.1" viewBox="0 0 460.8 345.6" width="460.8pt" xmlns="http://www.w3.org/2000/svg" xmlns:xlink="http://www.w3.org/1999/xlink">
 <defs>
  <style type="text/css">
*{stroke-linecap:butt;stroke-linejoin:round;}
  </style>
 </defs>
 <g id="figure_1">
  <g id="patch_1">
   <path d="M 0 345.6 
L 460.8 345.6 
L 460.8 0 
L 0 0 
z
" style="fill:#ffffff;"/>
  </g>
  <g id="axes_1">
   <g id="patch_2">
    <path d="M 57.6 307.584 
L 414.72 307.584 
L 414.72 41.472 
L 57.6 41.472 
z
" style="fill:#ffffff;"/>
   </g>
   <g id="matplotlib.axis_1">
    <g id="xtick_1">
     <g id="line2d_1">
      <defs>
       <path d="M 0 0 
L 0 3.5 
" id="m92c500d102" style="stroke:#000000;stroke-width:0.8;"/>
      </defs>
      <g>
       <use style="stroke:#000000;stroke-width:0.8;" x="73.799924" xlink:href="#m92c500d102" y="307.584"/>
      </g>
     </g>
     <g id="text_1">
      <text style="font-family:DejaVu Sans;font-size:10px;font-style:normal;font-weight:normal;text-anchor:middle;" transform="rotate(-0, 73.799924, 322.182437)" x="73.799924" y="322.182437">0.0</text>
     </g>
    </g>
    <g id="xtick_2">
     <g id="line2d_2">
      <g>
       <use style="stroke:#000000;stroke-width:0.8;" x="139.406515" xlink:href="#m92c500d102" y="307.584"/>
      </g>
     </g>
     <g id="text_2">
      <text style="font-family:DejaVu Sans;font-size:10px;font-style:normal;font-weight:normal;text-anchor:middle;" transform="rotate(-0, 139.406515, 322.182437)" x="139.406515" y="322.182437">0.2</text>
     </g>
    </g>
    <g id="xtick_3">
     <g id="line2d_3">
      <g>
       <use style="stroke:#000000;stroke-width:0.8;" x="205.013105" xlink:href="#m92c500d102" y="307.584"/>
      </g>
     </g>
     <g id="text_3">
      <text style="font-family:DejaVu Sans;font-size:10px;font-style:normal;font-weight:normal;text-anchor:middle;" transform="rotate(-0, 205.013105, 322.182437)" x="205.013105" y="322.182437">0.4</text>
     </g>
    </g>
    <g id="xtick_4">
     <g id="line2d_4">
      <g>
       <use style="stroke:#000000;stroke-width:0.8;" x="270.619696" xlink:href="#m92c500d102" y="307.584"/>
      </g>
     </g>
     <g id="text_4">
      <text style="font-family:DejaVu Sans;font-size:10px;font-style:normal;font-weight:normal;text-anchor:middle;" transform="rotate(-0, 270.619696, 322.182437)" x="270.619696" y="322.182437">0.6</text>
     </g>
    </g>
    <g id="xtick_5">
     <g id="line2d_5">
      <g>
       <use style="stroke:#000000;stroke-width:0.8;" x="336.226287" xlink:href="#m92c500d102" y="307.584"/>
      </g>
     </g>
     <g id="text_5">
      <text style="font-family:DejaVu Sans;font-size:10px;font-style:normal;font-weight:normal;text-anchor:middle;" transform="rotate(-0, 336.226287, 322.182437)" x="336.226287" y="322.182437">0.8</text>
     </g>
    </g>
    <g id="xtick_6">
     <g id="line2d_6">
      <g>
       <use style="stroke:#000000;stroke-width:0.8;" x="401.832878" xlink:href="#m92c500d102" y="307.584"/>
      </g>
     </g>
     <g id="text_6">
      <text style="font-family:DejaVu Sans;font-size:10px;font-style:normal;font-weight:normal;text-anchor:middle;" transform="rotate(-0, 401.832878, 322.182437)" x="401.832878" y="322.182437">1.0</text>
     </g>
    </g>
    <g id="text_7">
     <text style="font-family:DejaVu Sans;font-size:10px;font-style:normal;font-weight:normal;text-anchor:middle;" transform="rotate(-0, 236.16, 335.860562)" x="236.16" y="335.860562">Probability</text>
    </g>
   </g>
   <g id="matplotlib.axis_2">
    <g id="ytick_1">
     <g id="line2d_7">
      <defs>
       <path d="M 0 0 
L -3.5 0 
" id="m2ffd6cb69d" style="stroke:#000000;stroke-width:0.8;"/>
      </defs>
      <g>
       <use style="stroke:#000000;stroke-width:0.8;" x="57.6" xlink:href="#m2ffd6cb69d" y="298.231572"/>
      </g>
     </g>
     <g id="text_8">
      <text style="font-family:DejaVu Sans;font-size:10px;font-style:normal;font-weight:normal;text-anchor:end;" transform="rotate(-0, 50.6, 302.030791)" x="50.6" y="302.030791">0</text>
     </g>
    </g>
    <g id="ytick_2">
     <g id="line2d_8">
      <g>
       <use style="stroke:#000000;stroke-width:0.8;" x="57.6" xlink:href="#m2ffd6cb69d" y="263.343827"/>
      </g>
     </g>
     <g id="text_9">
      <text style="font-family:DejaVu Sans;font-size:10px;font-style:normal;font-weight:normal;text-anchor:end;" transform="rotate(-0, 50.6, 267.143046)" x="50.6" y="267.143046">25</text>
     </g>
    </g>
    <g id="ytick_3">
     <g id="line2d_9">
      <g>
       <use style="stroke:#000000;stroke-width:0.8;" x="57.6" xlink:href="#m2ffd6cb69d" y="228.456081"/>
      </g>
     </g>
     <g id="text_10">
      <text style="font-family:DejaVu Sans;font-size:10px;font-style:normal;font-weight:normal;text-anchor:end;" transform="rotate(-0, 50.6, 232.2553)" x="50.6" y="232.2553">50</text>
     </g>
    </g>
    <g id="ytick_4">
     <g id="line2d_10">
      <g>
       <use style="stroke:#000000;stroke-width:0.8;" x="57.6" xlink:href="#m2ffd6cb69d" y="193.568336"/>
      </g>
     </g>
     <g id="text_11">
      <text style="font-family:DejaVu Sans;font-size:10px;font-style:normal;font-weight:normal;text-anchor:end;" transform="rotate(-0, 50.6, 197.367555)" x="50.6" y="197.367555">75</text>
     </g>
    </g>
    <g id="ytick_5">
     <g id="line2d_11">
      <g>
       <use style="stroke:#000000;stroke-width:0.8;" x="57.6" xlink:href="#m2ffd6cb69d" y="158.680591"/>
      </g>
     </g>
     <g id="text_12">
      <text style="font-family:DejaVu Sans;font-size:10px;font-style:normal;font-weight:normal;text-anchor:end;" transform="rotate(-0, 50.6, 162.479809)" x="50.6" y="162.479809">100</text>
     </g>
    </g>
    <g id="ytick_6">
     <g id="line2d_12">
      <g>
       <use style="stroke:#000000;stroke-width:0.8;" x="57.6" xlink:href="#m2ffd6cb69d" y="123.792845"/>
      </g>
     </g>
     <g id="text_13">
      <text style="font-family:DejaVu Sans;font-size:10px;font-style:normal;font-weight:normal;text-anchor:end;" transform="rotate(-0, 50.6, 127.592064)" x="50.6" y="127.592064">125</text>
     </g>
    </g>
    <g id="ytick_7">
     <g id="line2d_13">
      <g>
       <use style="stroke:#000000;stroke-width:0.8;" x="57.6" xlink:href="#m2ffd6cb69d" y="88.9051"/>
      </g>
     </g>
     <g id="text_14">
      <text style="font-family:DejaVu Sans;font-size:10px;font-style:normal;font-weight:normal;text-anchor:end;" transform="rotate(-0, 50.6, 92.704318)" x="50.6" y="92.704318">150</text>
     </g>
    </g>
    <g id="ytick_8">
     <g id="line2d_14">
      <g>
       <use style="stroke:#000000;stroke-width:0.8;" x="57.6" xlink:href="#m2ffd6cb69d" y="54.017354"/>
      </g>
     </g>
     <g id="text_15">
      <text style="font-family:DejaVu Sans;font-size:10px;font-style:normal;font-weight:normal;text-anchor:end;" transform="rotate(-0, 50.6, 57.816573)" x="50.6" y="57.816573">175</text>
     </g>
    </g>
    <g id="text_16">
     <text style="font-family:DejaVu Sans;font-size:10px;font-style:normal;font-weight:normal;text-anchor:middle;" transform="rotate(-90, 25.432812, 174.528)" x="25.432812" y="174.528">Average Bits Consumed Per Call</text>
    </g>
   </g>
   <g id="line2d_15">
    <path clip-path="url(#p82f64a6397)" d="M 73.832727 295.468463 
L 77.145529 295.488 
L 80.45833 295.314957 
L 83.771132 295.15866 
L 87.083933 295.0219 
L 90.396735 295.337285 
L 93.709536 295.192152 
L 97.022338 295.144705 
L 100.335139 295.038646 
L 103.647941 295.334494 
L 106.960742 295.055392 
L 110.273544 295.016318 
L 113.586345 294.692559 
L 116.899147 294.893513 
L 120.211948 295.07772 
L 123.52475 294.929796 
L 126.837551 294.700932 
L 130.150353 295.072138 
L 133.463154 294.625575 
L 136.775955 294.957706 
L 140.088757 294.58371 
L 143.401558 294.650694 
L 146.71436 294.513934 
L 150.027161 294.513934 
L 153.339963 294.455323 
L 156.652764 294.527889 
L 159.965566 294.488815 
L 163.278367 294.477651 
L 166.591169 294.36601 
L 169.90397 294.36601 
L 173.216772 294.162266 
L 176.529573 294.162266 
L 179.842375 294.014342 
L 183.155176 294.324145 
L 186.467978 293.908283 
L 189.780779 293.841298 
L 193.093581 293.651509 
L 196.406382 293.436601 
L 199.719184 293.757568 
L 203.031985 293.587316 
L 206.344787 293.249602 
L 209.657588 293.830134 
L 212.97039 293.548241 
L 216.283191 293.204946 
L 219.595993 293.029112 
L 222.908794 293.375198 
L 226.221596 293.020739 
L 229.534397 292.85886 
L 232.847199 292.83374 
L 236.16 292.816994 
L 239.472801 292.836531 
L 242.785603 292.537892 
L 246.098404 292.331357 
L 249.411206 292.336939 
L 252.724007 292.046673 
L 256.036809 291.879212 
L 259.34961 291.756407 
L 262.662412 291.68384 
L 265.975213 291.471723 
L 269.288015 291.147964 
L 272.600816 291.223322 
L 275.913618 291.480096 
L 279.226419 290.910728 
L 282.539221 290.935847 
L 285.852022 289.802693 
L 289.164824 290.266002 
L 292.477625 290.402762 
L 295.790427 290.366479 
L 299.103228 288.624883 
L 302.41603 289.096565 
L 305.728831 288.583017 
L 309.041633 288.06947 
L 312.354434 288.714195 
L 315.667236 287.999694 
L 318.980037 287.399625 
L 322.292839 286.196696 
L 325.60564 286.305545 
L 328.918442 285.867355 
L 332.231243 284.84026 
L 335.544045 284.572322 
L 338.856846 283.210305 
L 342.169647 283.391721 
L 345.482449 281.750601 
L 348.79525 280.246242 
L 352.108052 278.825613 
L 355.420853 279.087969 
L 358.733655 277.75107 
L 362.046456 275.166586 
L 365.359258 272.498371 
L 368.672059 270.756775 
L 371.984861 268.202992 
L 375.297662 266.229741 
L 378.610464 258.571183 
L 381.923265 254.267431 
L 385.236067 245.637598 
L 388.548868 231.495502 
L 391.86167 202.678224 
L 395.174471 162.311707 
L 398.487273 53.568 
" style="fill:none;stroke:#1f77b4;stroke-linecap:square;stroke-width:1.5;"/>
   </g>
   <g id="patch_3">
    <path d="M 57.6 307.584 
L 57.6 41.472 
" style="fill:none;stroke:#000000;stroke-linecap:square;stroke-linejoin:miter;stroke-width:0.8;"/>
   </g>
   <g id="patch_4">
    <path d="M 414.72 307.584 
L 414.72 41.472 
" style="fill:none;stroke:#000000;stroke-linecap:square;stroke-linejoin:miter;stroke-width:0.8;"/>
   </g>
   <g id="patch_5">
    <path d="M 57.6 307.584 
L 414.72 307.584 
" style="fill:none;stroke:#000000;stroke-linecap:square;stroke-linejoin:miter;stroke-width:0.8;"/>
   </g>
   <g id="patch_6">
    <path d="M 57.6 41.472 
L 414.72 41.472 
" style="fill:none;stroke:#000000;stroke-linecap:square;stroke-linejoin:miter;stroke-width:0.8;"/>
   </g>
   <g id="text_17">
    <text style="font-family:DejaVu Sans;font-size:12px;font-style:normal;font-weight:normal;text-anchor:middle;" transform="rotate(-0, 236.16, 35.472)" x="236.16" y="35.472">Avg. Bits Consumed by 1/(1+x) (Alt. Series) Algorithm</text>
   </g>
   <g id="legend_1">
    <g id="patch_7">
     <path d="M 64.6 64.150125 
L 196.425 64.150125 
Q 198.425 64.150125 198.425 62.150125 
L 198.425 48.472 
Q 198.425 46.472 196.425 46.472 
L 64.6 46.472 
Q 62.6 46.472 62.6 48.472 
L 62.6 62.150125 
Q 62.6 64.150125 64.6 64.150125 
z
" style="fill:#ffffff;opacity:0.8;stroke:#cccccc;stroke-linejoin:miter;"/>
    </g>
    <g id="line2d_16">
     <path d="M 66.6 54.570438 
L 86.6 54.570438 
" style="fill:none;stroke:#1f77b4;stroke-linecap:square;stroke-width:1.5;"/>
    </g>
    <g id="line2d_17"/>
    <g id="text_18">
     <text style="font-family:DejaVu Sans;font-size:10px;font-style:normal;font-weight:normal;text-anchor:start;" transform="rotate(-0, 94.6, 58.070438)" x="94.6" y="58.070438">1/(1+x) (Alt. Series)</text>
    </g>
   </g>
  </g>
 </g>
 <defs>
  <clipPath id="p82f64a6397">
   <rect height="266.112" width="357.12" x="57.6" y="41.472"/>
  </clipPath>
 </defs>
</svg>

<svg height="460.8" viewBox="0 0 460.8 345.6" width="614.4" xmlns="http://www.w3.org/2000/svg" xmlns:xlink="http://www.w3.org/1999/xlink"><defs><style>*{stroke-linecap:butt;stroke-linejoin:round}</style></defs><g id="figure_1"><path d="M0 345.6h460.8V0H0z" fill="#fff" id="patch_1"/><g id="axes_1"><path d="M57.6 307.584h357.12V41.472H57.6z" fill="#fff" id="patch_2"/><g id="matplotlib.axis_1"><g id="xtick_1"><g id="line2d_1"><defs><path d="M0 0v3.5" id="m92c500d102" stroke="#000" stroke-width=".8"/></defs><use x="73.8" xlink:href="#m92c500d102" y="307.584" stroke="#000" stroke-width=".8"/></g><text x="73.8" y="322.182" font-family="DejaVu Sans" font-size="10" font-weight="400" text-anchor="middle" id="text_1">0.0</text></g><g id="xtick_2"><use x="139.407" xlink:href="#m92c500d102" y="307.584" stroke="#000" stroke-width=".8" id="line2d_2"/><text x="139.407" y="322.182" font-family="DejaVu Sans" font-size="10" font-weight="400" text-anchor="middle" id="text_2">0.2</text></g><g id="xtick_3"><use x="205.013" xlink:href="#m92c500d102" y="307.584" stroke="#000" stroke-width=".8" id="line2d_3"/><text x="205.013" y="322.182" font-family="DejaVu Sans" font-size="10" font-weight="400" text-anchor="middle" id="text_3">0.4</text></g><g id="xtick_4"><use x="270.62" xlink:href="#m92c500d102" y="307.584" stroke="#000" stroke-width=".8" id="line2d_4"/><text x="270.62" y="322.182" font-family="DejaVu Sans" font-size="10" font-weight="400" text-anchor="middle" id="text_4">0.6</text></g><g id="xtick_5"><use x="336.226" xlink:href="#m92c500d102" y="307.584" stroke="#000" stroke-width=".8" id="line2d_5"/><text x="336.226" y="322.182" font-family="DejaVu Sans" font-size="10" font-weight="400" text-anchor="middle" id="text_5">0.8</text></g><g id="xtick_6"><use x="401.833" xlink:href="#m92c500d102" y="307.584" stroke="#000" stroke-width=".8" id="line2d_6"/><text x="401.833" y="322.182" font-family="DejaVu Sans" font-size="10" font-weight="400" text-anchor="middle" id="text_6">1.0</text></g><text x="236.16" y="335.861" font-family="DejaVu Sans" font-size="10" font-weight="400" text-anchor="middle" id="text_7">Probability</text></g><g id="matplotlib.axis_2"><g id="ytick_1"><g id="line2d_7"><defs><path d="M0 0h-3.5" id="m2ffd6cb69d" stroke="#000" stroke-width=".8"/></defs><use x="57.6" xlink:href="#m2ffd6cb69d" y="298.232" stroke="#000" stroke-width=".8"/></g><text x="50.6" y="302.031" font-family="DejaVu Sans" font-size="10" font-weight="400" text-anchor="end" id="text_8">0</text></g><g id="ytick_2"><use x="57.6" xlink:href="#m2ffd6cb69d" y="263.344" stroke="#000" stroke-width=".8" id="line2d_8"/><text x="50.6" y="267.143" font-family="DejaVu Sans" font-size="10" font-weight="400" text-anchor="end" id="text_9">25</text></g><g id="ytick_3"><use x="57.6" xlink:href="#m2ffd6cb69d" y="228.456" stroke="#000" stroke-width=".8" id="line2d_9"/><text x="50.6" y="232.255" font-family="DejaVu Sans" font-size="10" font-weight="400" text-anchor="end" id="text_10">50</text></g><g id="ytick_4"><use x="57.6" xlink:href="#m2ffd6cb69d" y="193.568" stroke="#000" stroke-width=".8" id="line2d_10"/><text x="50.6" y="197.368" font-family="DejaVu Sans" font-size="10" font-weight="400" text-anchor="end" id="text_11">75</text></g><g id="ytick_5"><use x="57.6" xlink:href="#m2ffd6cb69d" y="158.681" stroke="#000" stroke-width=".8" id="line2d_11"/><text x="50.6" y="162.48" font-family="DejaVu Sans" font-size="10" font-weight="400" text-anchor="end" id="text_12">100</text></g><g id="ytick_6"><use x="57.6" xlink:href="#m2ffd6cb69d" y="123.793" stroke="#000" stroke-width=".8" id="line2d_12"/><text x="50.6" y="127.592" font-family="DejaVu Sans" font-size="10" font-weight="400" text-anchor="end" id="text_13">125</text></g><g id="ytick_7"><use x="57.6" xlink:href="#m2ffd6cb69d" y="88.905" stroke="#000" stroke-width=".8" id="line2d_13"/><text x="50.6" y="92.704" font-family="DejaVu Sans" font-size="10" font-weight="400" text-anchor="end" id="text_14">150</text></g><g id="ytick_8"><use x="57.6" xlink:href="#m2ffd6cb69d" y="54.017" stroke="#000" stroke-width=".8" id="line2d_14"/><text x="50.6" y="57.817" font-family="DejaVu Sans" font-size="10" font-weight="400" text-anchor="end" id="text_15">175</text></g><text transform="rotate(-90 25.433 174.528)" x="25.433" y="174.528" font-family="DejaVu Sans" font-size="10" font-weight="400" text-anchor="middle" id="text_16">Average Bits Consumed Per Call</text></g><path clip-path="url(#p82f64a6397)" d="M73.833 295.468l3.313.02 3.312-.173 3.313-.156 3.313-.137 3.313.315 3.313-.145 3.312-.047 3.313-.106 3.313.295 3.313-.279 3.313-.039 3.312-.323 3.313.2 3.313.185 3.313-.148 3.313-.23 3.312.372 3.313-.446 3.313.332 3.313-.374 3.313.067 3.312-.137h3.313l3.313-.059 3.313.073 3.313-.04 3.312-.01 3.313-.112h3.313l3.313-.204h3.313l3.312-.148 3.313.31 3.313-.416 3.313-.067 3.313-.19 3.312-.214 3.313.32 3.313-.17 3.313-.337 3.313.58 3.312-.282 3.313-.343 3.313-.176 3.313.346 3.313-.354 3.312-.162 3.313-.025 3.313-.017 3.313.02 3.313-.3 3.312-.206 3.313.006 3.313-.29 3.313-.168 3.313-.123 3.312-.072 3.313-.212 3.313-.324 3.313.075 3.313.257 3.312-.57 3.313.026 3.313-1.133 3.313.463 3.313.137 3.312-.037 3.313-1.741 3.313.472 3.313-.514 3.313-.514 3.312.645 3.313-.714 3.313-.6 3.313-1.203 3.313.109 3.312-.439 3.313-1.027 3.313-.268 3.313-1.362 3.313.182 3.312-1.641 3.313-1.505 3.313-1.42 3.313.262 3.313-1.337 3.312-2.584 3.313-2.669 3.313-1.741 3.313-2.554 3.313-1.973 3.312-7.659 3.313-4.304 3.313-8.63 3.313-14.141 3.313-28.818 3.312-40.366 3.313-108.744" fill="none" stroke="#1f77b4" stroke-linecap="square" stroke-width="1.5" id="line2d_15"/><path d="M57.6 307.584V41.472" fill="none" stroke="#000" stroke-linecap="square" stroke-width=".8" id="patch_3"/><path d="M414.72 307.584V41.472" fill="none" stroke="#000" stroke-linecap="square" stroke-width=".8" id="patch_4"/><path d="M57.6 307.584h357.12" fill="none" stroke="#000" stroke-linecap="square" stroke-width=".8" id="patch_5"/><path d="M57.6 41.472h357.12" fill="none" stroke="#000" stroke-linecap="square" stroke-width=".8" id="patch_6"/><text x="236.16" y="35.472" font-family="DejaVu Sans" font-size="12" font-weight="400" text-anchor="middle" id="text_17">Avg. Bits Consumed by 1/(1+x) (Alt. Series) Algorithm</text><g id="legend_1"><path d="M64.6 64.15h131.825q2 0 2-2V48.472q0-2-2-2H64.6q-2 0-2 2V62.15q0 2 2 2z" fill="#fff" opacity=".8" stroke="#ccc" id="patch_7"/><path d="M66.6 54.57h20" fill="none" stroke="#1f77b4" stroke-linecap="square" stroke-width="1.5" id="line2d_16"/><text x="94.6" y="58.07" font-family="DejaVu Sans" font-size="10" font-weight="400" id="text_18">1/(1+x) (Alt. Series)</text></g></g></g><defs><clipPath id="p82f64a6397"><path d="M57.6 41.472h357.12v266.112H57.6z"/></clipPath></defs></svg>
